src/assets/img/providers/gameart.svg

<svg width="106" height="15" viewBox="0 0 106 15" fill="none" xmlns="http://www.w3.org/2000/svg">
<path fill-rule="evenodd" clip-rule="evenodd" d="M57.4461 12.4849L65.9746 12.48C66.0014 12.4802 66.0278 12.4869 66.0515 12.4996C66.0751 12.5122 66.0954 12.5305 66.1104 12.5528L67.5504 14.7152C67.5654 14.7374 67.5856 14.7557 67.6092 14.7684C67.6329 14.781 67.6593 14.7878 67.6861 14.7879H71.1528C71.1826 14.7877 71.2118 14.7795 71.2373 14.764C71.2628 14.7485 71.2837 14.7264 71.2976 14.7001C71.3115 14.6737 71.318 14.644 71.3164 14.6143C71.3148 14.5845 71.3052 14.5557 71.2885 14.5309L62.1588 1.04245C62.1438 1.0202 62.1236 1.00194 62.1 0.989262C62.0763 0.976587 62.0499 0.969881 62.0231 0.969727H0.55883C0.51511 0.969727 0.47318 0.987094 0.442265 1.01801C0.41135 1.04892 0.393982 1.09085 0.393982 1.13458V14.6231C0.393982 14.6668 0.41135 14.7087 0.442265 14.7396C0.47318 14.7705 0.51511 14.7879 0.55883 14.7879H55.7055C55.7323 14.7878 55.7587 14.781 55.7824 14.7684C55.8061 14.7557 55.8263 14.7374 55.8413 14.7152L57.3104 12.5576C57.3254 12.5353 57.3456 12.5171 57.3692 12.5044C57.3929 12.4917 57.4193 12.485 57.4461 12.4849ZM19.263 10.9265C19.2401 10.9384 19.2206 10.9557 19.2061 10.977L18.0473 12.6643C18.0333 12.6849 18.0145 12.7018 17.9926 12.7136C17.9706 12.7254 17.9462 12.7318 17.9213 12.7322L16.2049 12.7418C16.1765 12.7423 16.1484 12.735 16.1239 12.7206C16.0994 12.7063 16.0792 12.6855 16.0657 12.6604C16.0522 12.6354 16.0458 12.6072 16.0473 12.5788C16.0488 12.5504 16.058 12.5229 16.074 12.4994L22.6097 2.73458C22.6236 2.7133 22.6424 2.69574 22.6646 2.68343C22.6867 2.67111 22.7116 2.66443 22.7369 2.66395C22.7623 2.66347 22.7874 2.66921 22.81 2.68068C22.8326 2.69215 22.8521 2.70899 22.8667 2.72973L29.4897 12.5091C29.5055 12.5323 29.5147 12.5593 29.5164 12.5873C29.518 12.6152 29.5121 12.6431 29.4991 12.668C29.4862 12.6928 29.4668 12.7137 29.4429 12.7285C29.4191 12.7432 29.3917 12.7511 29.3637 12.7515L27.5697 12.7225C27.5448 12.7221 27.5204 12.7157 27.4984 12.7039C27.4765 12.6921 27.4577 12.6752 27.4437 12.6546L26.3237 10.977C26.3097 10.9564 26.2909 10.9395 26.2689 10.9276C26.247 10.9158 26.2225 10.9095 26.1976 10.9091H19.337C19.3113 10.9087 19.2858 10.9147 19.263 10.9265ZM12.874 10.1673L12.8788 9.15397C12.8788 8.95033 12.7786 8.84851 12.5782 8.84851L8.5152 8.85336C8.48305 8.85336 8.45222 8.84008 8.42949 8.81644C8.40675 8.7928 8.39398 8.76074 8.39398 8.7273L8.38913 7.27276C8.38913 7.24061 8.40242 7.20978 8.42606 7.18705C8.4497 7.16432 8.48176 7.15155 8.5152 7.15155H14.4546C14.6162 7.15155 14.697 7.23235 14.697 7.39397V10.914C14.697 11.1014 14.6275 11.2566 14.4885 11.3794C12.2097 13.377 7.76853 13.1346 5.47035 12.0873C3.94146 11.3859 3.07843 10.1689 2.88126 8.43639C2.18792 2.35639 11.2546 1.62912 14.411 4.38791C14.4227 4.39729 14.4323 4.40894 14.4394 4.42215C14.4465 4.43537 14.4509 4.44988 14.4523 4.46482C14.4536 4.47975 14.4519 4.49481 14.4473 4.50909C14.4427 4.52337 14.4353 4.53657 14.4255 4.54791L13.5625 5.64367C13.5075 5.71154 13.4445 5.72124 13.3734 5.67276C11.8219 4.64811 9.97136 4.30872 7.82186 4.65458C6.23641 4.91155 4.99519 5.77942 4.88368 7.44245C4.73176 9.68569 5.81297 10.914 8.12732 11.1273C9.87924 11.2922 11.3693 11.1128 12.5976 10.5891C12.7819 10.5083 12.874 10.3677 12.874 10.1673ZM33.388 12.7196C33.368 12.7279 33.3465 12.7322 33.3249 12.7322H31.7055C31.6839 12.7322 31.6624 12.7279 31.6424 12.7196C31.6224 12.7113 31.6042 12.6992 31.5889 12.6839C31.5736 12.6686 31.5615 12.6504 31.5532 12.6304C31.5449 12.6104 31.5407 12.589 31.5407 12.5673L31.5504 2.88488C31.5504 2.85289 31.5597 2.8216 31.5772 2.79482C31.5948 2.76805 31.6197 2.74696 31.649 2.73411C31.6783 2.72126 31.7107 2.71721 31.7422 2.72246C31.7738 2.72771 31.8032 2.74202 31.8267 2.76367L37.9746 8.417C38.005 8.44494 38.0448 8.46044 38.0861 8.46044C38.1274 8.46044 38.1672 8.44494 38.1976 8.417L44.1128 2.75882C44.136 2.73743 44.1649 2.72318 44.1961 2.71775C44.2272 2.71233 44.2592 2.71596 44.2883 2.72822C44.3175 2.74048 44.3424 2.76085 44.3603 2.78691C44.3782 2.81296 44.3882 2.8436 44.3891 2.87518L44.3988 12.5673C44.3988 12.589 44.3946 12.6104 44.3863 12.6304C44.378 12.6504 44.3659 12.6686 44.3506 12.6839C44.3352 12.6992 44.3171 12.7113 44.2971 12.7196C44.2771 12.7279 44.2556 12.7322 44.234 12.7322H42.6097C42.566 12.7322 42.5241 12.7148 42.4932 12.6839C42.4623 12.653 42.4449 12.611 42.4449 12.5673L42.4643 7.14185C42.4642 7.1093 42.4545 7.07751 42.4364 7.05047C42.4183 7.02344 42.3925 7.00237 42.3625 6.98993C42.3324 6.97748 42.2993 6.97422 42.2674 6.98055C42.2355 6.98688 42.2061 7.00251 42.1831 7.02548L38.1831 10.8655C38.1524 10.8948 38.1116 10.9112 38.0691 10.9112C38.0267 10.9112 37.9859 10.8948 37.9552 10.8655L33.7613 6.99154C33.7377 6.9699 33.7084 6.95559 33.6768 6.95034C33.6452 6.94509 33.6128 6.94913 33.5835 6.96198C33.5542 6.97483 33.5293 6.99593 33.5118 7.0227C33.4943 7.04948 33.4849 7.08077 33.4849 7.11276L33.4897 12.5673C33.4897 12.589 33.4855 12.6104 33.4772 12.6304C33.4689 12.6504 33.4568 12.6686 33.4415 12.6839C33.4262 12.6992 33.408 12.7113 33.388 12.7196ZM49.7728 6.86368C49.8019 6.89277 49.8413 6.90912 49.8825 6.90912L56.0982 6.90427C56.1263 6.90467 56.1536 6.91265 56.1775 6.92736C56.2013 6.94207 56.2208 6.96297 56.2337 6.98783C56.2466 7.01269 56.2526 7.04059 56.2509 7.06856C56.2493 7.09653 56.2401 7.12353 56.2243 7.1467L55.2885 8.53821C55.2741 8.5595 55.2545 8.57685 55.2317 8.5887C55.2088 8.60055 55.1834 8.60652 55.1576 8.60609L49.8873 8.61094C49.8462 8.61094 49.8067 8.62729 49.7776 8.65638C49.7485 8.68548 49.7322 8.72494 49.7322 8.76609L49.7273 10.754C49.7273 10.7951 49.7437 10.8346 49.7728 10.8637C49.8019 10.8928 49.8413 10.9091 49.8825 10.9091L53.5188 10.9043C53.5469 10.9047 53.5742 10.9126 53.5981 10.9274C53.6219 10.9421 53.6414 10.963 53.6543 10.9878C53.6672 11.0127 53.6732 11.0406 53.6715 11.0686C53.6699 11.0965 53.6607 11.1235 53.6449 11.1467L52.6267 12.6594C52.6127 12.68 52.5939 12.697 52.572 12.7088C52.55 12.7206 52.5256 12.7269 52.5007 12.7273L47.9431 12.7322C47.9019 12.7322 47.8625 12.7158 47.8334 12.6867C47.8043 12.6576 47.7879 12.6181 47.7879 12.577V3.18548C47.7879 3.14434 47.8043 3.10487 47.8334 3.07578C47.8625 3.04668 47.9019 3.03033 47.9431 3.03033L58.5758 3.02548C58.6035 3.02558 58.6306 3.03307 58.6544 3.04719C58.6782 3.0613 58.6978 3.08152 58.7112 3.10576C58.7245 3.12999 58.7311 3.15736 58.7304 3.18501C58.7296 3.21267 58.7214 3.23962 58.7067 3.26306L57.7225 4.77579C57.709 4.79729 57.6905 4.81517 57.6685 4.82785C57.6465 4.84053 57.6218 4.84762 57.5964 4.84851H49.8873C49.8462 4.84851 49.8067 4.86486 49.7776 4.89396C49.7485 4.92305 49.7322 4.96252 49.7322 5.00367L49.7273 6.75397C49.7273 6.79512 49.7437 6.83458 49.7728 6.86368ZM59.5356 9.17675C59.5367 9.14963 59.5452 9.12333 59.5601 9.10064L61.5188 6.16245C61.5325 6.14144 61.5512 6.12417 61.5732 6.11222C61.5952 6.10027 61.6199 6.094 61.6449 6.094C61.67 6.094 61.6946 6.10027 61.7166 6.11222C61.7386 6.12417 61.7573 6.14144 61.771 6.16245L63.7298 9.10064C63.7446 9.12333 63.7531 9.14963 63.7542 9.17675C63.7554 9.20387 63.7492 9.23078 63.7362 9.25465C63.7233 9.27851 63.7041 9.29843 63.6808 9.31229C63.6575 9.32615 63.6308 9.33343 63.6037 9.33336H59.6861C59.659 9.33343 59.6323 9.32615 59.609 9.31229C59.5857 9.29843 59.5665 9.27851 59.5536 9.25465C59.5407 9.23078 59.5344 9.20387 59.5356 9.17675ZM89.3249 14.7154C87.88 13.1898 86.4304 11.5849 84.9758 9.90087C84.8045 9.7037 84.8465 9.57602 85.1019 9.51784C86.7407 9.14451 87.9528 7.75299 88.0449 6.05602C88.1936 3.46046 86.8312 1.9445 83.9576 1.50814C82.3609 1.26572 78.7245 1.22046 73.0485 1.37238C72.8546 1.37885 72.7576 1.47905 72.7576 1.67299V14.6669C72.7576 14.6991 72.7704 14.7299 72.7931 14.7526C72.8159 14.7754 72.8467 14.7881 72.8788 14.7881L76.0303 14.7833C76.1112 14.7833 76.1516 14.7445 76.1516 14.6669V10.3033C76.1516 10.1417 76.2324 10.0609 76.394 10.0609H80.491C80.6946 10.0609 80.8659 10.1368 81.0049 10.2887L84.9613 14.696C85.0097 14.751 85.0712 14.7801 85.1455 14.7833C86.7455 14.8092 88.1338 14.7962 89.3103 14.7445C89.3117 14.7444 89.313 14.7441 89.3143 14.7436C89.3161 14.743 89.3178 14.7422 89.3193 14.7411C89.3219 14.7393 89.3241 14.7368 89.3255 14.7339C89.326 14.7329 89.3265 14.7318 89.3268 14.7306C89.3274 14.7287 89.3276 14.7266 89.3276 14.7246C89.3274 14.7214 89.3265 14.7182 89.3249 14.7154ZM76.1516 6.89966V4.63057C76.1509 4.61233 76.1539 4.59416 76.1605 4.57712C76.167 4.56009 76.1769 4.54454 76.1896 4.53142C76.2022 4.5183 76.2174 4.50786 76.2342 4.50074C76.251 4.49361 76.2691 4.48995 76.2873 4.48996L82.4982 4.48026C83.0697 4.47951 83.6179 4.59038 84.0224 4.78854C84.4269 4.9867 84.6547 5.25597 84.6558 5.53723V5.9542C84.6563 6.09381 84.6009 6.23217 84.4927 6.36137C84.3845 6.49057 84.2257 6.60807 84.0253 6.70714C83.8249 6.80622 83.5869 6.88493 83.3248 6.93876C83.0628 6.99259 82.7819 7.02049 82.4982 7.02087L76.2873 7.03057C76.2521 7.03059 76.2183 7.01695 76.193 6.99253C76.1677 6.96811 76.1528 6.93481 76.1516 6.89966ZM95.6376 4.48488H89.8776C89.8378 4.48488 89.7995 4.46904 89.7713 4.44086C89.7432 4.41267 89.7273 4.37444 89.7273 4.33457V1.48367C89.7273 1.4438 89.7432 1.40557 89.7713 1.37739C89.7995 1.3492 89.8378 1.33336 89.8776 1.33336H105.209C105.248 1.33336 105.287 1.3492 105.315 1.37739C105.343 1.40557 105.359 1.4438 105.359 1.48367L105.364 4.33457C105.364 4.37444 105.348 4.41267 105.32 4.44086C105.291 4.46904 105.253 4.48488 105.213 4.48488H99.3322C99.2923 4.48488 99.2541 4.50071 99.2259 4.5289C99.1977 4.55709 99.1819 4.59532 99.1819 4.63518V14.6376C99.1819 14.6775 99.166 14.7157 99.1379 14.7439C99.1097 14.7721 99.0714 14.7879 99.0316 14.7879H95.9382C95.8984 14.7879 95.8601 14.7721 95.832 14.7439C95.8038 14.7157 95.7879 14.6775 95.7879 14.6376V4.63518C95.7879 4.59532 95.7721 4.55709 95.7439 4.5289C95.7157 4.50071 95.6775 4.48488 95.6376 4.48488ZM22.5709 5.87141L20.4909 8.97444C20.4738 8.99874 20.4638 9.02734 20.462 9.05703C20.4602 9.08671 20.4667 9.11631 20.4808 9.14249C20.4949 9.16868 20.516 9.19041 20.5418 9.20526C20.5676 9.22011 20.597 9.22749 20.6267 9.22656L24.8206 9.20232C24.8499 9.20233 24.8787 9.19429 24.9037 9.17908C24.9288 9.16387 24.9492 9.14206 24.9627 9.11605C24.9762 9.09003 24.9823 9.0608 24.9804 9.03155C24.9784 9.00231 24.9684 8.97416 24.9515 8.95019L22.8376 5.86656C22.8226 5.84482 22.8025 5.82712 22.779 5.81505C22.7555 5.80299 22.7294 5.79692 22.703 5.7974C22.6766 5.79788 22.6507 5.80489 22.6276 5.81781C22.6046 5.83072 22.5851 5.84913 22.5709 5.87141Z" fill="#919EAB"/>
</svg>

<svg width="106" height="15" fill="none" xmlns="http://www.w3.org/2000/svg"><path fill-rule="evenodd" clip-rule="evenodd" d="m57.446 12.485 8.529-.005a.165.165 0 0 1 .135.073l1.44 2.162a.166.166 0 0 0 .136.073h3.467a.165.165 0 0 0 .135-.257l-9.13-13.489a.165.165 0 0 0-.135-.072H.56a.165.165 0 0 0-.165.165v13.488a.165.165 0 0 0 .165.165h55.147a.165.165 0 0 0 .135-.073l1.47-2.157a.165.165 0 0 1 .135-.073Zm-38.183-1.558a.155.155 0 0 0-.057.05l-1.159 1.687a.155.155 0 0 1-.126.068l-1.716.01a.155.155 0 0 1-.131-.243l6.536-9.764a.156.156 0 0 1 .257-.005l6.623 9.78a.156.156 0 0 1-.126.242l-1.794-.03a.156.156 0 0 1-.126-.067l-1.12-1.678a.156.156 0 0 0-.126-.068h-6.861a.156.156 0 0 0-.074.018Zm-6.389-.76.005-1.013c0-.204-.1-.305-.3-.305l-4.064.004a.119.119 0 0 1-.086-.037.129.129 0 0 1-.035-.089l-.005-1.454c0-.032.013-.063.037-.086a.129.129 0 0 1 .09-.035h5.939c.161 0 .242.08.242.242v3.52c0 .187-.07.343-.208.465-2.28 1.998-6.72 1.756-9.019.708-1.529-.701-2.392-1.918-2.589-3.65-.693-6.08 8.374-6.808 11.53-4.05a.111.111 0 0 1 .014.16l-.863 1.097c-.054.068-.117.077-.189.029-1.551-1.025-3.402-1.364-5.551-1.018-1.586.257-2.827 1.124-2.938 2.787-.152 2.244.929 3.472 3.243 3.685 1.752.165 3.242-.014 4.47-.538a.427.427 0 0 0 .277-.422Zm20.514 2.553a.165.165 0 0 1-.063.012h-1.62a.165.165 0 0 1-.164-.165l.01-9.682a.165.165 0 0 1 .276-.121l6.148 5.653a.165.165 0 0 0 .223 0l5.915-5.658a.164.164 0 0 1 .276.116l.01 9.692a.164.164 0 0 1-.165.165H42.61a.165.165 0 0 1-.165-.165l.02-5.425a.165.165 0 0 0-.282-.117l-4 3.84a.165.165 0 0 1-.228 0l-4.194-3.873a.165.165 0 0 0-.276.12l.005 5.455a.164.164 0 0 1-.102.153Zm16.385-5.856c.029.029.068.045.11.045l6.215-.005a.155.155 0 0 1 .126.243l-.935 1.391a.155.155 0 0 1-.131.068l-5.27.005a.155.155 0 0 0-.156.155l-.005 1.988a.155.155 0 0 0 .156.155l3.636-.005a.154.154 0 0 1 .153.165.155.155 0 0 1-.027.078l-1.018 1.512a.155.155 0 0 1-.126.068l-4.558.005a.155.155 0 0 1-.155-.155V3.185a.155.155 0 0 1 .155-.155l10.633-.005a.155.155 0 0 1 .13.238l-.984 1.513a.155.155 0 0 1-.126.073h-7.709a.155.155 0 0 0-.155.155l-.005 1.75c0 .041.017.08.046.11Zm9.763 2.313a.15.15 0 0 1 .024-.076l1.959-2.939a.151.151 0 0 1 .252 0l1.959 2.939a.15.15 0 0 1-.126.232h-3.918a.15.15 0 0 1-.15-.156Zm29.789 5.538a141.718 141.718 0 0 1-4.35-4.814c-.17-.197-.128-.325.127-.383 1.639-.373 2.85-1.765 2.943-3.462.149-2.596-1.214-4.112-4.087-4.548-1.597-.242-5.233-.288-10.91-.136-.193.007-.29.107-.29.301v12.994a.121.121 0 0 0 .12.121l3.152-.005c.081 0 .122-.038.122-.116v-4.364c0-.161.08-.242.242-.242h4.097a.67.67 0 0 1 .514.228l3.956 4.407a.25.25 0 0 0 .184.087 70.517 70.517 0 0 0 4.17-.04.019.019 0 0 0 .013-.013.02.02 0 0 0 0-.005.021.021 0 0 0-.003-.01ZM76.152 6.9V4.63a.134.134 0 0 1 .038-.099.135.135 0 0 1 .097-.041l6.211-.01c.572 0 1.12.11 1.524.309.405.198.633.467.634.748v.417a.63.63 0 0 1-.163.407c-.108.13-.267.247-.468.346-.2.1-.438.178-.7.232a4.166 4.166 0 0 1-.827.082l-6.21.01a.136.136 0 0 1-.136-.131Zm19.486-2.415h-5.76a.15.15 0 0 1-.15-.15V1.484a.15.15 0 0 1 .15-.15h15.331a.15.15 0 0 1 .15.15l.005 2.85a.151.151 0 0 1-.151.15h-5.88a.15.15 0 0 0-.151.151v10.003a.15.15 0 0 1-.15.15h-3.094a.15.15 0 0 1-.15-.15V4.635a.15.15 0 0 0-.15-.15ZM22.57 5.87l-2.08 3.103a.16.16 0 0 0 .136.253l4.194-.025a.16.16 0 0 0 .13-.252l-2.113-3.083a.16.16 0 0 0-.267.004Z" fill="#919EAB"/></svg>
